src/assets/images/w1r.svg

<svg xmlns="http://www.w3.org/2000/svg" width="600" height="600" fill="none"><path fill="#283E68" fill-opacity=".7" d="M402 527H200v18h202z"/><path fill="#402B1A" d="M318 123h-17v17h17z"/><path fill="#513225" d="M315.5 128.5h-1v1h1v-1ZM311.5 128.5h-1v1h1v-1ZM313.5 126.5h-1v1h1v-1ZM313.5 130.5h-1v1h1v-1ZM309.5 126.5h-1v1h1v-1ZM310.5 131.5h-1v1h1v-1ZM315.5 133.5h-1v1h1v-1ZM312.5 133.5h-1v1h1v-1ZM309.5 134.5h-1v1h1v-1ZM305.5 126.5h-1v1h1v-1ZM302 126.5h-1v1h1v-1ZM307.5 128.5h-1v1h1v-1ZM304 128.5h-1v1h1v-1ZM306 130.5h-1v1h1v-1ZM307.5 132.5h-1v1h1v-1ZM303 131.5h-1v1h1v-1ZM305 133.5h-1v1h1v-1ZM306.5 135.5h-1v1h1v-1ZM305 137h-1v1h1v-1ZM302.5 136h-1v1h1v-1ZM309.5 137h-1v1h1v-1ZM312.5 136h-1v1h1v-1ZM314.5 137h-1v1h1v-1ZM317 139h-16v1h16z"/><path fill="#2F272B" d="M315 139h-1v1h1v-1ZM313.5 139h-1v1h1v-1ZM310.5 139h-1v1h1v-1ZM308.5 139h-1v1h1v-1ZM305.5 139h-1v1h1v-1ZM303 139h-1v1h1v-1Z"/><path fill="#E5C6A2" d="M318 106h-17v17h17z"/><path fill="#D66921" d="M368 56h-17v17h17z"/><path fill="#E27C19" d="M351 73h-17v33.5h17V73Z"/><path fill="#FB9632" d="M334 73h-17v17h17z"/><path fill="#D0A370" d="M351 123h-17v17h17z"/><path fill="#D66921" d="M351 140h-17v17h17z"/><path fill="#E5C6A2" d="M334 140h-16.5v17H334v-17Z"/><path fill="#D66921" d="M334 89.5h-33V106h17v34h16V89.5Z"/><path fill="#B14D0B" d="M351 106h-17v17h17z"/><path fill="#9B5F27" d="M368 157h-18v17h18z"/><path fill="#9B5F27" d="M385 173h-18v35h18z"/><path fill="#9B5F27" d="M368 189h-18v85h18v-85Z"/><path fill="#9B5F27" d="M351 206.202h-17V274h16l1-67.798Z"/><path fill="#B2743B" d="M350 157h-16v17h-17v-17h-16.5v17H284v100.5h50V208h16v-18.5h17.5V174H350v-17Z"/><path fill="#D0A370" d="M334 157h-17v17h17zM385 208h-17v16h17z"/><path fill="#3A2212" d="M368 274h-84v18h84z"/><path fill="#A7A6A6" d="M318 274h-17v17h17z"/><path fill="#5B1D00" d="M368 291h-84v168h17v-50h16.5V307.5h17V409H351v50h17V291Z"/><path fill="#722400" d="M351 307h-67v118h17l-1.5-99.5H334v84h17V307Z"/><path fill="#5B1D00" d="M351 375h-17v17h17z"/><path fill="#3A2212" d="M351 358h-17v17h17zM368 342h-17v16h17z"/><path fill="#3A2212" d="M385 291h-18v84h18z"/><path fill="#1B0F07" d="M368 458h-17v51h17zM301 459h-17v50h17z"/><path fill="#3A2212" d="M368 509h-17v36h17zM301 509h-17v36h17z"/><path fill="#E5C6A2" d="M402 224h-17v151h17z"/><path fill="#3A2212" d="M402 324h-17v34h17z"/><path fill="#D0A370" d="M284 224h-17v151h17z"/><path fill="#3A2212" d="M284 324h-17v34h17z"/><path fill="#E1E1E1" d="M214 429h-18v18h18v-18ZM232 411h-18v18h18v-18ZM250 393h-18v18h18v-18Z"/><path fill="#3A2212" d="M267 375h-17v18h17z"/></svg>

<svg width="600" height="600" viewBox="0 0 600 600" fill="none" xmlns="http://www.w3.org/2000/svg">
<rect width="202" height="18" transform="matrix(-1 0 0 1 402 527)" fill="#283E68" fill-opacity="0.7"/>
<rect width="17" height="17" transform="matrix(-1 0 0 1 318 123)" fill="#402B1A"/>
<path d="M315.5 128.5H314.5V129.5H315.5V128.5Z" fill="#513225"/>
<path d="M311.5 128.5H310.5V129.5H311.5V128.5Z" fill="#513225"/>
<path d="M313.5 126.5H312.5V127.5H313.5V126.5Z" fill="#513225"/>
<path d="M313.5 130.5H312.5V131.5H313.5V130.5Z" fill="#513225"/>
<path d="M309.5 126.5H308.5V127.5H309.5V126.5Z" fill="#513225"/>
<path d="M310.5 131.5H309.5V132.5H310.5V131.5Z" fill="#513225"/>
<path d="M315.5 133.5H314.5V134.5H315.5V133.5Z" fill="#513225"/>
<path d="M312.5 133.5H311.5V134.5H312.5V133.5Z" fill="#513225"/>
<path d="M309.5 134.5H308.5V135.5H309.5V134.5Z" fill="#513225"/>
<path d="M305.5 126.5H304.5V127.5H305.5V126.5Z" fill="#513225"/>
<path d="M302 126.5H301V127.5H302V126.5Z" fill="#513225"/>
<path d="M307.5 128.5H306.5V129.5H307.5V128.5Z" fill="#513225"/>
<path d="M304 128.5H303V129.5H304V128.5Z" fill="#513225"/>
<path d="M306 130.5H305V131.5H306V130.5Z" fill="#513225"/>
<path d="M307.5 132.5H306.5V133.5H307.5V132.5Z" fill="#513225"/>
<path d="M303 131.5H302V132.5H303V131.5Z" fill="#513225"/>
<path d="M305 133.5H304V134.5H305V133.5Z" fill="#513225"/>
<path d="M306.5 135.5H305.5V136.5H306.5V135.5Z" fill="#513225"/>
<path d="M305 137H304V138H305V137Z" fill="#513225"/>
<path d="M302.5 136H301.5V137H302.5V136Z" fill="#513225"/>
<path d="M309.5 137H308.5V138H309.5V137Z" fill="#513225"/>
<path d="M312.5 136H311.5V137H312.5V136Z" fill="#513225"/>
<path d="M314.5 137H313.5V138H314.5V137Z" fill="#513225"/>
<rect width="16" height="1" transform="matrix(-1 0 0 1 317 139)" fill="#513225"/>
<path d="M315 139H314V140H315V139Z" fill="#2F272B"/>
<path d="M313.5 139H312.5V140H313.5V139Z" fill="#2F272B"/>
<path d="M310.5 139H309.5V140H310.5V139Z" fill="#2F272B"/>
<path d="M308.5 139H307.5V140H308.5V139Z" fill="#2F272B"/>
<path d="M305.5 139H304.5V140H305.5V139Z" fill="#2F272B"/>
<path d="M303 139H302V140H303V139Z" fill="#2F272B"/>
<rect width="17" height="17" transform="matrix(-1 0 0 1 318 106)" fill="#E5C6A2"/>
<rect width="17" height="17" transform="matrix(-1 0 0 1 368 56)" fill="#D66921"/>
<path d="M351 73H334V106.5H351V73Z" fill="#E27C19"/>
<rect width="17" height="17" transform="matrix(-1 0 0 1 334 73)" fill="#FB9632"/>
<rect width="17" height="17" transform="matrix(-1 0 0 1 351 123)" fill="#D0A370"/>
<rect width="17" height="17" transform="matrix(-1 0 0 1 351 140)" fill="#D66921"/>
<path d="M334 140H317.5V157H334V140Z" fill="#E5C6A2"/>
<path d="M334 89.5H318H301V106H318V140H334V89.5Z" fill="#D66921"/>
<rect width="17" height="17" transform="matrix(-1 0 0 1 351 106)" fill="#B14D0B"/>
<rect width="18" height="17" transform="matrix(-1 0 0 1 368 157)" fill="#9B5F27"/>
<rect width="18" height="35" transform="matrix(-1 0 0 1 385 173)" fill="#9B5F27"/>
<path d="M368 189H350V274H368V189Z" fill="#9B5F27"/>
<path d="M351 206.202H334V274H350L351 206.202Z" fill="#9B5F27"/>
<path d="M350 157H334V174H317V157H300.5V174H284V274.5H334V208H350V189.5H367.5V174H350V157Z" fill="#B2743B"/>
<rect width="17" height="17" transform="matrix(-1 0 0 1 334 157)" fill="#D0A370"/>
<rect width="17" height="16" transform="matrix(-1 0 0 1 385 208)" fill="#D0A370"/>
<rect width="84" height="18" transform="matrix(-1 0 0 1 368 274)" fill="#3A2212"/>
<rect width="17" height="17" transform="matrix(-1 0 0 1 318 274)" fill="#A7A6A6"/>
<path d="M368 291H284V459H301V409H317.5V307.5H334.5V409H351V459H368V291Z" fill="#5B1D00"/>
<path d="M351 307H284V425H301L299.5 325.5H334V409.5H351V307Z" fill="#722400"/>
<rect width="17" height="17" transform="matrix(-1 0 0 1 351 375)" fill="#5B1D00"/>
<rect width="17" height="17" transform="matrix(-1 0 0 1 351 358)" fill="#3A2212"/>
<rect width="17" height="16" transform="matrix(-1 0 0 1 368 342)" fill="#3A2212"/>
<rect width="18" height="84" transform="matrix(-1 0 0 1 385 291)" fill="#3A2212"/>
<rect width="17" height="51" transform="matrix(-1 0 0 1 368 458)" fill="#1B0F07"/>
<rect width="17" height="50" transform="matrix(-1 0 0 1 301 459)" fill="#1B0F07"/>
<rect width="17" height="36" transform="matrix(-1 0 0 1 368 509)" fill="#3A2212"/>
<rect width="17" height="36" transform="matrix(-1 0 0 1 301 509)" fill="#3A2212"/>
<rect width="17" height="151" transform="matrix(-1 0 0 1 402 224)" fill="#E5C6A2"/>
<rect width="17" height="34" transform="matrix(-1 0 0 1 402 324)" fill="#3A2212"/>
<rect width="17" height="151" transform="matrix(-1 0 0 1 284 224)" fill="#D0A370"/>
<rect width="17" height="34" transform="matrix(-1 0 0 1 284 324)" fill="#3A2212"/>
<path d="M214 429H196V447H214V429Z" fill="#E1E1E1"/>
<path d="M232 411H214V429H232V411Z" fill="#E1E1E1"/>
<path d="M250 393H232V411H250V393Z" fill="#E1E1E1"/>
<rect width="17" height="18" transform="matrix(-1 0 0 1 267 375)" fill="#3A2212"/>
</svg>
